X:994
T:The Stumbling Fiddler
C:Traditional American?
L:1/8
M:6/8
R:Jig
S:Colin Hume's website,  colinhume.com  - chords can also be printed below the stave.
Q:3/8=112
K:C
P:A
|: G | "C"cBc Gcd | ecA Gde | "G7"fdB GAB | "C"cBA "G7"G2G |\
"C"cBc Gcd | ecA Gde | "G7"fdB GAB |1 "C"cBc c2 :|2 "C"cBc c3 |
P:B
|: "C"g3 g3 | gec Gde | "G7"fdB GAB | "C"cBA Gce |\
"C"g3 g3 | gec Gde | "G7"fdB GAB |1 "C"c3- c3 :|2 "C"c3-c2 |]

